X: 84
I: linebreak $
T: Picking of Sticks
T: longways for three couples or as many as will
C: 
P: for Picking of Sticks: Ax7 Bx3 Ax7 for Lavena: repeat A
M: 6/4
L: 1/8
K: D minor
K: C major
P: A
 |: "^Lavena"d2 | "Dm"d4d2 "A"^c3Bc2 | "Dm"d4d2 A4d2 | "Dm"d6 "A"^c3Bc2 | "Dm"d6 "A"A4"Gm"_B2 | "Gm"_B3dc2 B3cB2 | "Dm"A3_BA2 "C"G3FE2 | 
"Dm"F3GA2 "Gm"G3A"Dm"F2 | "A"E6 "D"D4 :: 
P: B
"^Picking of Sticks - Note Key Change!""G"G2 | "G"B3cd2 d3cd2 | "F"c4A2 A4A2 | "F"A3Bc2 c3dc2 | "G"B4G2 G4G2 | 
"G"B3cd2 d3cd2 | "F"c4A2 A4A2 | "F"A3Bc2 c3dc2 | "G"B4G2 G4 :| 

